packages/dnb-eufemia/assets/icons/microphone.svg

<svg width="16" height="16" viewBox="0 0 16 16" fill="none" xmlns="http://www.w3.org/2000/svg">
<path d="M7.77273 11.7333V15M7.77273 11.7333C9.01065 11.7552 10.2072 11.2975 11.1013 10.4601C11.9954 9.62269 12.5146 8.47351 12.5455 7.26327V5.66665M7.77273 11.7333C6.5348 11.7552 5.33826 11.2975 4.44413 10.4601C3.55001 9.62269 3.03088 8.47351 3 7.26327V5.66665M7.77273 15H10.3182M7.77273 15H5.22727M7.79027 1C9.10485 1 10.1705 2.042 10.1705 3.32737V6.79265C10.1705 8.07802 9.10485 9.12002 7.79027 9.12002C6.47568 9.12002 5.41 8.07802 5.41 6.79265V3.32737C5.41 2.042 6.47568 1 7.79027 1Z" stroke="black" stroke-width="1.5" stroke-linecap="round" stroke-linejoin="round"/>
</svg>

<svg width="16" height="16" viewBox="0 0 16 16" fill="none" xmlns="http://www.w3.org/2000/svg"><path d="M7.773 11.733V15m0-3.267A4.748 4.748 0 0 0 11.1 10.46a4.539 4.539 0 0 0 1.444-3.197V5.667m-4.772 6.066a4.748 4.748 0 0 1-3.329-1.273A4.539 4.539 0 0 1 3 7.263V5.667M7.773 15h2.545m-2.545 0H5.227M7.79 1c1.315 0 2.38 1.042 2.38 2.327v3.466c0 1.285-1.065 2.327-2.38 2.327-1.314 0-2.38-1.042-2.38-2.327V3.327C5.41 2.042 6.476 1 7.79 1Z" stroke="#000" stroke-width="1.5" stroke-linecap="round" stroke-linejoin="round"/></svg>
